X: 123203
P: Same Figure.
M: C
L: 1/8
K: G	% with endings in Em
dcBA GABc | dBGB d2(cB) |\
|: (dc) |\
c2A2 A2(fg) | a2A2 A2(Bc) |\
d2G2 B2G2 | gfge d2B2 |\


